X: 436
T: Winchell's Falls
C: Noah VanNostrand
M: 4/4
L: 1/8
K: A
"A"vAB cd eu(c BA) |"D"vF2 u(A2- AB) AF |"A"vE2 u(A2- AB) AE |"D"vF2 u(A2- AB) AF |
"A"vE2 c2 cu(B AE) |"D"vF2 u(A2- AB) AF |"A"EF Au(c "E"BA) GB |[1"A"vA4-A2 u(EF) :|\
[2v"A"A4 u(AB) ce |]
|: "E"vB3 (c B2) AB |"A"c2 e6 |"D"v(f a2) u(a- ab) af |"A"e2 u(c2- cB A2) |
"E"vB3 (c B2) AB |"F#m"c2 e2 cB AF |"A"EF Au(c "E"BA) GB |[1"A"A4 u(AB) ce :|[2"A"A6 EF |]

